!!!OTL: Die wiedergefundene Schwester Es reisen ihrer Herren alle dreie,
!!!ARE: Europa, Mitteleuropa, Lothringen, Hambach
!!!SCT: D0060
!!!YEM: Copyright 1995, estate of Helmut Schaffrath.
**kern
*ICvox
*Ivox
*M3/4
*k[b-]
*F:
{4c
=1
4f
4f
8f
8f
=2
4g
4g
8a
8a
=3
2.b-
=4
4f
4r}
{8a
8b-
=5
4.cc
8dd
4cc
=6
4g
4g
4cc
=7
4cc
4b-
4a
=8
4g
4r}
{8.cc
16b-
=9
4a
4g
4a
=10
4f
4f
4a
=11
4f
4g
4a
=12
4g
4r}
{4g
=13
4f
4f
4dd
=14
4.cc
8b-
8a
8cc
=15
8cc
8b-
4a
4g
=16
4f
4r}
{4g
=17
4f
4f
4dd
=18
4.cc
8b-
8a
8cc
=19
8cc
8b-
4a
4g
=20
4f
4r}
==
!!!AGN: Ballade, Familie, Wiederfinden von Familienangehoerigen
!! Inzipit = Variante zum Lied
!!!ONB: ESAC (Essen Associative Code) Database: DVA
!!!AMT: simple triple
!!!AIN: vox
!!!EED: Helmut Schaffrath
!!!EEV: 1.0
*-
